src/assets/images/venly.svg

<svg width="560" height="518" viewBox="0 0 560 518" fill="none" xmlns="http://www.w3.org/2000/svg">
<path d="M554.555 169.796L485.867 195.885C482.979 196.936 480.179 194.134 481.404 191.245L557.968 5.38109C559.105 2.57956 556.393 -0.309514 553.593 0.741059L408.078 51.6939C405.278 52.6569 403.003 54.8456 401.866 57.6471L303.252 306.545C302.027 309.697 305.089 312.849 308.239 311.711L369.84 289.123C373.253 287.898 376.403 291.575 374.565 294.814L284.089 448.46C282.164 451.787 277.264 451.787 275.339 448.46L184.863 294.726C183.025 291.575 186.088 287.81 189.588 289.036L251.189 311.623C254.339 312.761 257.401 309.61 256.176 306.458L157.475 57.6471C156.337 54.8456 154.15 52.7444 151.262 51.6939L5.92267 0.741059C3.03513 -0.221967 0.410092 2.57956 1.54761 5.38109L78.0237 191.245C79.1612 194.047 76.3612 196.936 73.5611 195.885L5.31016 169.796C1.81011 168.483 -1.33993 172.247 0.585095 175.486L203.763 512.02C205.775 515.347 209.363 517.36 213.301 517.36H346.477C350.328 517.36 354.003 515.347 356.015 512.02L559.543 175.486C561.205 172.247 558.055 168.483 554.555 169.796Z" fill="url(#paint0_linear)"/>
<defs>
<linearGradient id="paint0_linear" x1="226.009" y1="0.520248" x2="590.754" y2="99.7644" gradientUnits="userSpaceOnUse">
<stop stop-color="#7735E8"/>
<stop offset="1" stop-color="#C62CF1"/>
</linearGradient>
</defs>
</svg>

<svg width="560" height="518" fill="none" xmlns="http://www.w3.org/2000/svg"><path d="m554.555 169.796-68.688 26.089c-2.888 1.051-5.688-1.751-4.463-4.64L557.968 5.381c1.137-2.801-1.575-5.69-4.375-4.64L408.078 51.694c-2.8.963-5.075 3.152-6.212 5.953l-98.614 248.898c-1.225 3.152 1.837 6.304 4.987 5.166l61.601-22.588c3.413-1.225 6.563 2.452 4.725 5.691L284.089 448.46c-1.925 3.327-6.825 3.327-8.75 0l-90.476-153.734c-1.838-3.151 1.225-6.916 4.725-5.69l61.601 22.587c3.15 1.138 6.212-2.013 4.987-5.165l-98.701-248.81c-1.138-2.802-3.325-4.904-6.213-5.954L5.922.74C3.036-.222.41 2.58 1.549 5.381l76.476 185.864c1.137 2.802-1.663 5.691-4.463 4.64l-68.25-26.089c-3.5-1.313-6.65 2.451-4.726 5.69L203.763 512.02c2.012 3.327 5.6 5.34 9.538 5.34h133.176c3.851 0 7.526-2.013 9.538-5.34l203.528-336.534c1.662-3.239-1.488-7.003-4.988-5.69z" fill="url(#a)"/><defs><linearGradient id="a" x1="226.009" y1=".52" x2="590.754" y2="99.764" gradientUnits="userSpaceOnUse"><stop stop-color="#7735E8"/><stop offset="1" stop-color="#C62CF1"/></linearGradient></defs></svg>
